!!!COM: Richard Strauss
!!!CNT: Deutscher
!!!TXO: Deutsche 
!!!OTL: Allerseelen
!!!OPS: Opus 10
!!!ONM: No. 8
!!!LYR: Hermann v. Gilm
!!!ENC: Brian Bice
!!!YOR: Lieder, Complete Edition, vol. 1
!!!ODT: 1885/
!!NB: Vocal melody and text only encoded.
**kern	**silbe
*clefG2	*
*k[b-e-a-]	*
*M4/4	*
=7	=7
2r	.
8r	.
{8cc	{Stell'
8cc	auf
8b-	den
=8	=8
4.a-	Tisch
8a-	die
8a-	duf-
8g	-ten-
8a-	-den
8b-	Re-
=9	=9
2g	-se-
4a-}	-den,}
8r	.
{8a-	{die
=10	=10
8ff	letz-
8ee-	-ten
8dd	ro-
8cc	-ten
8b-	A-
8f	-stern
8g	trag'
8a-	her-
=11	=11
2g}	-bei,}
8r	.
{8g	{und
8g	lass
8g	uns
=12	=12
8bn	wie-
8bn	-der
8bn	von
8bn	der
4.an	Lie-
8an	-be
=13	=13
2dd	re-
4g}	-den,}
{4dd	{wie
=14	=14
2.ee-	einst
4ee-	im
=15	=15
[2.een	Mai.
8een]}	|}
8r	.
=18	=18
8r	.
{8g	{Gib
8g	mir
8g	die
4.cc	Hand,
8g	dass
=19	=19
8g	ihc
8f	sie
8g	heim-
8a-	-lich
4d	dru2k-
4e-}	-ke,}
=20	=20
8r	.
{8g	{und
8g	wenn
8g	man's
[2cc	sieht,
=21	=21
8cc]	|
8cc	mir
8dd	ist
8ee-	es
8.dd	ei-
16an	-ner-
4an}	-lei,}
=22	=22
8r	.
{8dd	{gib
8dd	mir
8dd	nur
4ee-	ei-
4dd	-nen
=23	=23
8r	.
4dd	dei-
8dd	-ner
4.ff#	su2-
8dd	-ssen
=24	=24
2cc#	Blik-
4bn}	-ke,}
{4f#	{wie
=25	=25
2.fn	einst
4ccn	im
=26	=26
2.b-}	Mai.}
4r	.
=27	=27
4r	.
{4g	{Es
4.ee-	blu2ht
8b-	und
=28	=28
[2b-	duf-
8b-]	|
8cc	-tet
8dd	heut'
8ee-	auf
=29	=29
(2g	je-
4f)	|
4g	-dem
=30	=30
2b-	Gra-
4a-}	-be,}
4r	.
=31	=31
{4ee-	{ein
8.an	Tag
16an	im
4an	Jahr
12an	ist
12b-	ja
12cc	dn
=32	=32
4.ff	To-
8a-	-ten
4g	frei,
12g	komm
12b-	an
12ee-	mein
=33	=33
[2gg	Herz,
8gg]}	|}
{8ee-	{dass
8dd	ich
8ee-	dich
=34	=34
4.aa-	wie-
8gg	-der
4cc	ha-
4ff}	-be}
=35	=35
4r	.
{4ee-	{wie
4.dd	einst
8cc	im
=36	=36
2b-}	Mai,}
2r	.
=38	=38
2r	.
4r	.
{4bn	{wie
=39	=39
(2.cc	einst
4d)	im
=40	=40
2e-}	Mai.}
2r	.
*-	*-
